svg/fluentui-system-icons/ic_fluent_save_sync_20_regular.svg

<svg width="20" height="20" viewBox="0 0 20 20" fill="none" xmlns="http://www.w3.org/2000/svg">
<path d="M3 5C3 3.89543 3.89543 3 5 3H13.3787C13.9091 3 14.4178 3.21071 14.7929 3.58579L16.4142 5.20711C16.7893 5.58218 17 6.09089 17 6.62132V9.59971C16.6832 9.43777 16.3486 9.30564 16 9.20703V6.62132C16 6.3561 15.8946 6.10175 15.7071 5.91421L14.0858 4.29289C13.8983 4.10536 13.6439 4 13.3787 4L13 4V6.5C13 7.32843 12.3284 8 11.5 8L7.5 8C6.67157 8 6 7.32843 6 6.5L6 4H5C4.44772 4 4 4.44772 4 5V15C4 15.5523 4.44772 16 5 16L5 11.5C5 10.6716 5.67157 10 6.5 10H11.3369C10.9338 10.2839 10.5705 10.6206 10.2572 11H6.5C6.22386 11 6 11.2239 6 11.5V16H9.20703C9.30564 16.3486 9.43777 16.6832 9.59971 17H5C3.89543 17 3 16.1046 3 15V5ZM7 4L7 6.5C7 6.77614 7.22386 7 7.5 7L11.5 7C11.7761 7 12 6.77614 12 6.5V4L7 4ZM10 14.5C10 16.9853 12.0147 19 14.5 19C16.9853 19 19 16.9853 19 14.5C19 12.0147 16.9853 10 14.5 10C12.0147 10 10 12.0147 10 14.5ZM16.5 11.5C16.7761 11.5 17 11.7239 17 12V13.5C17 13.7761 16.7761 14 16.5 14H15C14.7239 14 14.5 13.7761 14.5 13.5C14.5 13.2239 14.7239 13 15 13H15.4682C15.4179 12.9722 15.3663 12.9464 15.3135 12.923C15.0682 12.8137 14.8034 12.755 14.535 12.7503C14.2665 12.7456 13.9998 12.795 13.7508 12.8956C13.5018 12.9962 13.2756 13.1459 13.0857 13.3358C12.8905 13.531 12.5739 13.531 12.3786 13.3358C12.1834 13.1405 12.1834 12.8239 12.3786 12.6287C12.6635 12.3439 13.0027 12.1193 13.3762 11.9684C13.7497 11.8175 14.1497 11.7434 14.5524 11.7505C14.9552 11.7575 15.3524 11.8456 15.7203 12.0094C15.8162 12.0521 15.9095 12.0997 16 12.1519V12C16 11.7239 16.2239 11.5 16.5 11.5ZM15.6238 17.0316C15.2503 17.1825 14.8503 17.2566 14.4476 17.2495C14.0448 17.2425 13.6476 17.1544 13.2797 16.9906C13.1838 16.9479 13.0905 16.9003 13 16.8481V17C13 17.2761 12.7761 17.5 12.5 17.5C12.2239 17.5 12 17.2761 12 17V15.5C12 15.2239 12.2239 15 12.5 15H14C14.2761 15 14.5 15.2239 14.5 15.5C14.5 15.7761 14.2761 16 14 16H13.5318C13.5821 16.0278 13.6337 16.0536 13.6865 16.077C13.9318 16.1863 14.1966 16.245 14.465 16.2497C14.7335 16.2544 15.0002 16.205 15.2492 16.1044C15.4982 16.0038 15.7244 15.8541 15.9143 15.6642C16.1095 15.469 16.4261 15.469 16.6214 15.6642C16.8166 15.8595 16.8166 16.1761 16.6214 16.3713C16.3365 16.6561 15.9973 16.8807 15.6238 17.0316Z" fill="#212121"/>
</svg>

<svg xmlns="http://www.w3.org/2000/svg" width="20" height="20"><path d="M3 5a2 2 0 0 1 2-2h8.379a2 2 0 0 1 1.414.586l1.621 1.621A2 2 0 0 1 17 6.621V9.6a5.465 5.465 0 0 0-1-.393V6.621a1 1 0 0 0-.293-.707l-1.621-1.621A1 1 0 0 0 13.379 4H13v2.5A1.5 1.5 0 0 1 11.5 8h-4A1.5 1.5 0 0 1 6 6.5V4H5a1 1 0 0 0-1 1v10a1 1 0 0 0 1 1v-4.5A1.5 1.5 0 0 1 6.5 10h4.837c-.403.284-.767.62-1.08 1H6.5a.5.5 0 0 0-.5.5V16h3.207c.099.349.23.683.393 1H5a2 2 0 0 1-2-2V5Zm4-1v2.5a.5.5 0 0 0 .5.5h4a.5.5 0 0 0 .5-.5V4H7Zm3 10.5a4.5 4.5 0 1 0 9 0 4.5 4.5 0 0 0-9 0Zm6.5-3a.5.5 0 0 1 .5.5v1.5a.5.5 0 0 1-.5.5H15a.5.5 0 0 1 0-1h.468a1.999 1.999 0 0 0-2.383.336.5.5 0 0 1-.706-.707A3.001 3.001 0 0 1 16 12.152V12a.5.5 0 0 1 .5-.5Zm-.876 5.532A2.999 2.999 0 0 1 13 16.848V17a.5.5 0 0 1-1 0v-1.5a.5.5 0 0 1 .5-.5H14a.5.5 0 0 1 0 1h-.468a1.999 1.999 0 0 0 2.383-.336.5.5 0 0 1 .706.707c-.284.285-.624.51-.997.66Z"/></svg>
